resources/svg/ms-excel-o.svg

<svg width="15" height="15" viewBox="0 0 15 15" fill="none" xmlns="http://www.w3.org/2000/svg">
<path d="M2.5 3.5V1.5C2.5 0.947715 2.94772 0.5 3.5 0.5H13.5C14.0523 0.5 14.5 0.947715 14.5 1.5V13.5C14.5 14.0523 14.0523 14.5 13.5 14.5H3.5C2.94772 14.5 2.5 14.0523 2.5 13.5V11.5M2.5 5.5L6.5 9.5M2.5 9.5L6.5 5.5M1.5 3.5H7.5C8.05228 3.5 8.5 3.94772 8.5 4.5V10.5C8.5 11.0523 8.05228 11.5 7.5 11.5H1.5C0.947715 11.5 0.5 11.0523 0.5 10.5V4.5C0.5 3.94772 0.947715 3.5 1.5 3.5Z" stroke="black"/>
</svg>

<svg viewBox="0 0 15 15" fill="none" xmlns="http://www.w3.org/2000/svg" fill="currentColor"><path d="M2.5 3.5v-2a1 1 0 011-1h10a1 1 0 011 1v12a1 1 0 01-1 1h-10a1 1 0 01-1-1v-2m0-6l4 4m-4 0l4-4m-5-2h6a1 1 0 011 1v6a1 1 0 01-1 1h-6a1 1 0 01-1-1v-6a1 1 0 011-1z" stroke="currentColor"/></svg>
